Papirus/16x16/apps/xcas.svg

<?xml version="1.0" encoding="UTF-8" standalone="no"?>
<svg
   id="_图层_1"
   version="1.1"
   viewBox="0 0 64 64" width="16" height="16"
   sodipodi:docname="xcas.svg"
   xml:space="preserve"
   inkscape:version="1.4 (e7c3feb100, 2024-10-09)"
   xmlns:inkscape="http://www.inkscape.org/namespaces/inkscape"
   xmlns:sodipodi="http://sodipodi.sourceforge.net/DTD/sodipodi-0.dtd"
   xmlns="http://www.w3.org/2000/svg"
   xmlns:svg="http://www.w3.org/2000/svg"><sodipodi:namedview
     id="namedview26"
     pagecolor="#505050"
     bordercolor="#eeeeee"
     borderopacity="1"
     inkscape:showpageshadow="0"
     inkscape:pageopacity="0"
     inkscape:pagecheckerboard="0"
     inkscape:deskcolor="#505050"
     inkscape:zoom="10.6875"
     inkscape:cx="32"
     inkscape:cy="32"
     inkscape:window-width="1920"
     inkscape:window-height="939"
     inkscape:window-x="0"
     inkscape:window-y="34"
     inkscape:window-maximized="1"
     inkscape:current-layer="_图层_1" /><!-- Generator: Adobe Illustrator 29.0.1, SVG Export Plug-In . SVG Version: 2.1.0 Build 192)  --><defs
     id="defs6"><style
       id="style1">
      .st0 {
        fill-opacity: .5;
      }

      .st0, .st1, .st2, .st3, .st4, .st5, .st6, .st7 {
        fill: #fff;
      }

      .st8 {
        fill: #133c9a;
      }

      .st2, .st9 {
        display: none;
      }

      .st3 {
        fill-opacity: .2;
      }

      .st4 {
        fill-opacity: .9;
      }

      .st10 {
        fill: #3370ff;
      }

      .st11 {
        fill: url(#_未命名的渐变_3);
      }

      .st12 {
        fill: url(#_未命名的渐变);
      }

      .st5 {
        fill-opacity: .3;
      }

      .st6 {
        fill-opacity: 0;
      }

      .st7 {
        fill-opacity: .7;
      }

      .st13 {
        fill: #00d6b9;
      }

      .st14 {
        fill: url(#_未命名的渐变_2);
      }
    </style><radialGradient
       id="_未命名的渐变"
       data-name="未命名的渐变"
       cx="123.9"
       cy="-40.2"
       fx="123.9"
       fy="-40.2"
       r="59.4"
       gradientTransform="translate(-26.8 25.5) scale(.6 -.7)"
       gradientUnits="userSpaceOnUse"><stop
         offset="0"
         stop-color="#db202e"
         id="stop1" /><stop
         offset="1"
         stop-color="#e01b24"
         id="stop2" /></radialGradient><radialGradient
       id="_未命名的渐变_2"
       data-name="未命名的渐变 2"
       cx="67.6"
       cy="26.8"
       fx="67.6"
       fy="26.8"
       r="105.2"
       gradientTransform="translate(-26.6 25.3) scale(.6 -.7)"
       gradientUnits="userSpaceOnUse"><stop
         offset="0"
         stop-color="#ffb648"
         id="stop3" /><stop
         offset="1"
         stop-color="#ff7800"
         stop-opacity="0"
         id="stop4" /></radialGradient><radialGradient
       id="_未命名的渐变_3"
       data-name="未命名的渐变 3"
       cx="61.7"
       cy="18.6"
       fx="61.7"
       fy="18.6"
       r="68"
       gradientTransform="translate(-26.8 25.8) scale(.6 -.7)"
       gradientUnits="userSpaceOnUse"><stop
         offset="0"
         stop-color="#c64600"
         id="stop5" /><stop
         offset="1"
         stop-color="#a51d2d"
         id="stop6" /></radialGradient></defs><path
     class="st1"
     d="M 47.5,64.1 H 13.8 C 6.2,64.1 0,57.8 0,50.3 V 13.7 C 0,6.2 6.2,0 13.7,0 H 50.3 C 57.8,0 64,6.2 64,13.7 V 50.3 C 64,57.8 57.8,64 50.3,64 h -2.9 0.1 z"
     id="path6"
     style="fill:#936ff6;fill-opacity:1"
     sodipodi:nodetypes="cssssssssccc" /><g
     id="g36"
     transform="matrix(4.2623782,0,0,4.2561404,-4.1834308,-4.0836257)"><path
       style="fill:#ffffff"
       d="M 8.4918,2.9921 A 0.50005,0.50005 0 0 0 7.9996,3.4999 v 1 L 6.8004,3.5995 A 0.50080016,0.50080016 0 1 0 6.1988,4.4003 L 7.9996,5.7499 V 7.6327 L 6.3707,6.6913 6.1031,4.4569 A 0.50078,0.50078 0 0 0 5.109,4.578 l 0.1797,1.4883 -0.8653,-0.5 A 0.50005,0.50005 0 0 0 3.7379,5.7382 0.50005,0.50005 0 0 0 3.9234,6.4335 l 0.8653,0.5 -1.3789,0.5879 A 0.50099,0.50099 0 1 0 3.8023,8.4432 L 5.8707,7.5585 7.4996,8.4999 5.8707,9.4393 3.8023,8.5546 A 0.50099,0.50099 0 1 0 3.4098,9.4764 l 1.3789,0.5876 -0.8692,0.502 a 0.5005,0.5005 0 1 0 0.5,0.867 L 5.2887,10.932 5.109,12.42 a 0.50078,0.50078 0 1 0 0.9941,0.121 L 6.3707,10.307 7.9996,9.3651 v 1.8809 l -1.8008,1.35 a 0.50078,0.50078 0 1 0 0.6016,0.8 l 1.1992,-0.9 V 13.5 a 0.50005,0.50005 0 1 0 1,0 v -1.004 l 1.1994,0.9 a 0.50078,0.50078 0 1 0 0.601,-0.8 L 8.9996,11.246 V 9.3651 l 1.6314,0.9419 0.269,2.234 a 0.50078,0.50078 0 1 0 0.994,-0.121 l -0.18,-1.488 0.87,0.501 a 0.5005,0.5005 0 0 0 0.5,-0.867 l -0.87,-0.502 1.379,-0.5876 A 0.50099,0.50099 0 1 0 13.201,8.5546 L 11.13,9.4393 9.5016,8.4999 11.13,7.5585 13.201,8.4432 a 0.50099,0.50099 0 1 0 0.392,-0.9218 l -1.381,-0.5879 0.868,-0.5 A 0.50005,0.50005 0 0 0 13.265,5.7382 0.50005,0.50005 0 0 0 12.58,5.5663 l -0.868,0.5 0.182,-1.4883 A 0.50078,0.50078 0 0 0 10.9,4.4569 L 10.631,6.6913 8.9996,7.6327 V 5.7499 L 10.8,4.4003 A 0.5008,0.5008 0 1 0 10.199,3.5995 L 8.9996,4.4999 v -1 A 0.50005,0.50005 0 0 0 8.4918,2.9921 Z"
       id="path1" /></g></svg>

<svg xmlns="http://www.w3.org/2000/svg" width="16" height="16" version="1">
 <rect style="fill:#936ff6" width="15" height="15" x="1" y="1" rx="7.5" ry="7.5"/>
 <path style="fill:#ffffff" d="M 8.4918,2.9921 A 0.50005,0.50005 0 0 0 7.9996,3.4999 V 4.4999 L 6.8004,3.5995 A 0.5008,0.5008 0 1 0 6.1988,4.4003 L 7.9996,5.7499 V 7.6327 L 6.3707,6.6913 6.1031,4.4569 A 0.50078,0.50078 0 0 0 5.109,4.578 L 5.2887,6.0663 4.4234,5.5663 A 0.50005,0.50005 0 0 0 3.7379,5.7382 0.50005,0.50005 0 0 0 3.9234,6.4335 L 4.7887,6.9335 3.4098,7.5214 A 0.50099,0.50099 0 1 0 3.8023,8.4432 L 5.8707,7.5585 7.4996,8.4999 5.8707,9.4393 3.8023,8.5546 A 0.50099,0.50099 0 1 0 3.4098,9.4764 L 4.7887,10.064 3.9195,10.566 A 0.5005,0.5005 0 1 0 4.4195,11.433 L 5.2887,10.932 5.109,12.42 A 0.50078,0.50078 0 1 0 6.1031,12.541 L 6.3707,10.307 7.9996,9.3651 V 11.246 L 6.1988,12.596 A 0.50078,0.50078 0 1 0 6.8004,13.396 L 7.9996,12.496 V 13.5 A 0.50005,0.50005 0 1 0 8.9996,13.5 V 12.496 L 10.199,13.396 A 0.50078,0.50078 0 1 0 10.8,12.596 L 8.9996,11.246 V 9.3651 L 10.631,10.307 10.9,12.541 A 0.50078,0.50078 0 1 0 11.894,12.42 L 11.714,10.932 12.584,11.433 A 0.5005,0.5005 0 0 0 13.084,10.566 L 12.214,10.064 13.593,9.4764 A 0.50099,0.50099 0 1 0 13.201,8.5546 L 11.13,9.4393 9.5016,8.4999 11.13,7.5585 13.201,8.4432 A 0.50099,0.50099 0 1 0 13.593,7.5214 L 12.212,6.9335 13.08,6.4335 A 0.50005,0.50005 0 0 0 13.265,5.7382 0.50005,0.50005 0 0 0 12.58,5.5663 L 11.712,6.0663 11.894,4.578 A 0.50078,0.50078 0 0 0 10.9,4.4569 L 10.631,6.6913 8.9996,7.6327 V 5.7499 L 10.8,4.4003 A 0.5008,0.5008 0 1 0 10.199,3.5995 L 8.9996,4.4999 V 3.4999 A 0.50005,0.50005 0 0 0 8.4918,2.9921 Z"/>
</svg>
